X:21079 
T:HIBERNIAN JIG, The 
B:DMI.0357
Z:Nordberg/Black
N:Cut time removed. Note alternates to / DB,D / in
first two measures.
R:jig
%Q:1/4=160
M:6/8
L:1/8
K:Em
D|D[EB,]D D[EB,]D|D[EB,]D D2G|EGE EDE|GAB B2A|
ABd ege|dBA GAB|Bed BAB|GED E2:|
d|ded dBd|ege e2d|dBd edc|B2A G2d|
ged edB|dBA B2G|ABd ede|GEE E2:|

%%%

